X: 1743
T: Wandering Willy   #2
R: hornpipe, reel
%S: s:2 b:12(6+6)
B: O'Neill's 1850 #1743
O: J.O'Neill
Z: Bob Safranek, rjs@gsp.org
Z: A.LEE WORMAN
Z: Compacted via repeats and multiple endings [JC]
M: 2/4
L: 1/16
K: G
   (dc) | BGDG B2cB | A^GAB c2 [1,3 (BA) | Bgdg BgdB | c2A2 A2 :|[2,4 d2 | egdg BgAc | B2G2 G2 :|
|: (Bc) | dgfg edBd | ea^ga e2 [1,3 (ga) | bagf gedB | c2A2 A2 :|[2,4 d2 | egdg BgAc | B2G2 G2 :|
